Newaita-dark/actions/24/draw-watercolor.svg

<svg height="24" viewBox="0 0 24 24" width="24" xmlns="http://www.w3.org/2000/svg"><g fill="#e0e0e0"><path d="m19.144531 4.285156c-1.363281-1.359375-3.550781-1.359375-4.914062 0l-6.3125 6.316406-.351563.347657c-4.492187 2.433593-1.292968 4.496093-4.21875 8.402343-.261718.253907-.183594.695313.152344.839844 4.023438 1.726563 7.527344.695313 8.976562-4.328125l6.667969-6.667969c1.359375-1.359374 1.359375-3.550781 0-4.910156zm-1.402343 1.402344c.582031.582031.582031 1.523438 0 2.105469l-.644532.640625-2.105468-2.101563.644531-.644531c.582031-.582031 1.519531-.582031 2.105469 0zm-3.449219 1.34375 2.101562 2.105469-.757812.761719-2.105469-2.105469zm-1.464844 1.464844 2.105469 2.105468-3.507813 3.507813-2.105469-2.105469zm-3.773437 6.578125c1.054687 1.054687-.4375 3.945312-2.890626 3.59375 1.402344-2.105469.785157-5.699219 2.890626-3.59375zm0 0"/><path d="m18.351562 13.066406c-.167968.003906-.324218.089844-.417968.230469-1.007813 1.511719-2.070313 3.316406-2.070313 5.246094 0 .054687.007813.109375.023438.160156.082031 1.300781 1.152343 2.320313 2.476562 2.320313 1.320313 0 2.394531-1.023438 2.472657-2.324219.015624-.050781.027343-.101563.023437-.15625 0-1.929688-1.0625-3.734375-2.070313-5.246094-.097656-.144531-.261718-.230469-.4375-.230469zm.011719 1.484375c.796875 1.292969 1.46875 2.683594 1.46875 3.992188 0 .042969.003907.082031.011719.121093-.058594.769532-.699219 1.367188-1.480469 1.367188-.785156 0-1.425781-.597656-1.484375-1.367188.007813-.039062.011719-.078124.011719-.121093 0-1.308594.671875-2.699219 1.472656-3.992188zm0 0"/></g></svg>

<svg xmlns="http://www.w3.org/2000/svg" xmlns:xlink="http://www.w3.org/1999/xlink" width="24px" height="24px" viewBox="0 0 24 24" version="1.1">
<g id="surface1">
     <defs>
  <style id="current-color-scheme" type="text/css">
   .ColorScheme-Text { color:#eeeeee; } .ColorScheme-Highlight { color:#424242; }
  </style>
 </defs>
<path style="fill:currentColor" class="ColorScheme-Text" d="M 19.144531 4.285156 C 17.78125 2.925781 15.59375 2.925781 14.230469 4.285156 L 7.917969 10.601562 L 7.566406 10.949219 C 3.074219 13.382812 6.273438 15.445312 3.347656 19.351562 C 3.085938 19.605469 3.164062 20.046875 3.5 20.191406 C 7.523438 21.917969 11.027344 20.886719 12.476562 15.863281 L 19.144531 9.195312 C 20.503906 7.835938 20.503906 5.644531 19.144531 4.285156 Z M 17.742188 5.6875 C 18.324219 6.269531 18.324219 7.210938 17.742188 7.792969 L 17.097656 8.433594 L 14.992188 6.332031 L 15.636719 5.6875 C 16.21875 5.105469 17.15625 5.105469 17.742188 5.6875 Z M 14.292969 7.03125 L 16.394531 9.136719 L 15.636719 9.898438 L 13.53125 7.792969 Z M 12.828125 8.496094 L 14.933594 10.601562 L 11.425781 14.109375 L 9.320312 12.003906 Z M 9.054688 15.074219 C 10.109375 16.128906 8.617188 19.019531 6.164062 18.667969 C 7.566406 16.5625 6.949219 12.96875 9.054688 15.074219 Z M 9.054688 15.074219 "/>
     <defs>
  <style id="current-color-scheme" type="text/css">
   .ColorScheme-Text { color:#eeeeee; } .ColorScheme-Highlight { color:#424242; }
  </style>
 </defs>
<path style="fill:currentColor" class="ColorScheme-Text" d="M 18.351562 13.066406 C 18.183594 13.070312 18.027344 13.15625 17.933594 13.296875 C 16.925781 14.808594 15.863281 16.613281 15.863281 18.542969 C 15.863281 18.597656 15.871094 18.652344 15.886719 18.703125 C 15.96875 20.003906 17.039062 21.023438 18.363281 21.023438 C 19.683594 21.023438 20.757812 20 20.835938 18.699219 C 20.851562 18.648438 20.863281 18.597656 20.859375 18.542969 C 20.859375 16.613281 19.796875 14.808594 18.789062 13.296875 C 18.691406 13.152344 18.527344 13.066406 18.351562 13.066406 Z M 18.363281 14.550781 C 19.160156 15.84375 19.832031 17.234375 19.832031 18.542969 C 19.832031 18.585938 19.835938 18.625 19.84375 18.664062 C 19.785156 19.433594 19.144531 20.03125 18.363281 20.03125 C 17.578125 20.03125 16.9375 19.433594 16.878906 18.664062 C 16.886719 18.625 16.890625 18.585938 16.890625 18.542969 C 16.890625 17.234375 17.5625 15.84375 18.363281 14.550781 Z M 18.363281 14.550781 "/>
</g>
</svg>
